X:1
T:E minor Amos Bull, 1795
T:Based on Psalm 139
T:O Lord, Thou hast searched me out Anthem X No copyright. Transcribed from The Responsary, 1795.
%%score [ 1 2 3 4 ]
L:1/8
M:3/2
K:G
V:1 treble nm="Treble 1" snm="Tr. 1"
V:2 treble nm="Treble 2" snm="Tr. 2"
V:3 treble-8 nm="Tenor" snm="T."
V:4 bass nm="Bass" snm="B."
V:1
 B4 | B8 E2 F2 | G4 F4 (G2 A2) | (G4 A4) G4 | F4 F4 F4 | G2 G2 A4 F4 | B4 (B2 A2) G4 | F8 F4 | %8
w: ||||||||
 B2 Bc d4 e4 | B4 B8 | B4 d2 d2 d4 | G4 F8 | E8 z4 ||[M:2/2] E>FGA B2 B2 | d>e d2 A2 A2 | %15
w: |||||||
 A2 D>E FG A2 | AA F2 D2 z2 | BB B2 e2 ff | fedc B4 | z8 | z8 | z8 | B/A/ G/F/GA (B>c d2) | %23
w: ||If I climb up in- to|heav'n, * Thou art there.|||||
 e/d/ c/B/ A2 A4 | A2 A2 d2 dd | cB F2 F4 | E2 F2 G4 | z2 ee e4 | B4 B4 | G4 c4 | B4 z2 B2 | %31
w: ||||ev- en there|shall Thy|hand lead|me, *|
 d4 G4 | c4 Bc B2 | G6 z2 | B2 B2 e4 | e4 ^d4 | e8 ||[M:3/2] z8 B4 | E6 F2 G4 | A4 B4 d4 | %40
w: |||||||||
 e6 G2 F4 | G8 z2 B2 | B6 B2 B4 | d4 d4 G4 | A6 B2 c4 | B8 z4 | c8 B4 | A8 A4 | A4 d4 G4 | F8 A4 | %50
w: ||||||||||
 A8 c4 | c4 B8 | B4 B4 (A3 G) | F8 E4- | E4 z4 A4 | A4 A6 GF | E4 E4 F4 | B12 | z4 A4 B4 | %59
w: |||||||||
 d6 d2 B4 | e4 ^d8 | e12 |] %62
w: |||
V:2
 E4 | E8 E2 F2 | G4 F4 (G2 F2) | (E4 F4) G4 | B4 B4 B4 | E2 E2 F4 A4 | G4 (G2 F2) E4 | B8 d4 | %8
w: O|Lord, Thou hast|search- ed me *|out, * And|known me; Thou|know- est my ris-|ing and * my|rest: And|
 d2 dc B4 G4 | F4 F8 | F4 B2 B2 B4 | B4 B8 | B8 z4 ||[M:2/2] E>FGF G2 G2 | B>c BA/G/ F2 F2 | %15
w: spi- eth * out all|my ways,|and spi- eth out|all my|ways.|Whi- ther shall I go then|from * Thy * * spi- rit?|
 F2 F>G AB d2 | dd A2 A2 z2 | EE G2 E2 BB | BcBA (G>F E2) | z8 | z8 | z8 | G/F/ E/D/EF F4 | %23
w: Or whi- ther shall I fly|from Thy pre- sence?||||||If * I * take the wings|
 GG F2 F4 | F2 F2 G2 GG | AB d2 d4 | B2 A2 G4 | z2 E/F/G A4 | B4 E4 | E4 A4 | F4 z2 F2 | B4 d4 | %32
w: of the morn- ing,|and re- main in the|ut- ter- most parts|of the sea,||||* And|Thy right|
 c4 Bc B2 | B6 z2 | G2 F2 B4 | B4 F4 | E8 ||[M:3/2] z8 B4 | B6 B2 B4 | c4 d4 B4 | B6 B2 c4 | %41
w: hand shall * hold|me,|Thy right hand~|shall hold|me.|How|dear are Thy|coun- sels un-|to me, O|
 B8 z2 E2 | E6 E2 G4 | A4 A4 E4 | E6 G2 F4 | F8 z4 | A8 d4 | d8 c4 | c4 B4 B4 | B8 F4 | E8 F4 | %51
w: God, How|dear are Thy|coun- sels un-|to me, O|God.|O how|great is|the sum of|them, how|great, O|
 F4 F8 | G4 B4 (c3 B) | B8 B4- | B4 z4 d4 | d4 d6 B2 | B4 e4 d4 | d12 | z4 F4 F4 | G6 A2 B4 | %60
w: how great|is the sum *|of them.|* I|am ev- er|pre- sent with|Thee,|I am|ev- er pre-|
 B4 B8 | B12 |] %62
w: sent with|Thee.|
V:3
 B4 | B8 B2 B2 | B4 A4 (B2 A2) | (G4 F4) E4 | B4 B4 B4 | B2 B2 d4 d4 | d4 (B2 c2) B4 | B8 B4 | %8
w: ||||||||
 B2 G2 d4 G4 | F4 B8 | B4 G2 B2 d4 | e4 ^d8 | e8 z4 ||[M:2/2] B>BBA G2 d2 | d>c B>c d2 d2 | %15
w: |||||||
 A2 d>c d/c/B A2 | AA de d2 z2 | z8 | z8 | d/c/ B/A/ G2 D2 EF | (G2 A2) BB B2 | F4 E4 | %22
w: ||||If * I * go down to the|depths, * Thou art there|al- so.|
 eeec (BA/G/ F2) | BG d2 d4 | A2 F2 B2 BB | cB F2 F4 | E2 F2 G4 | z8 | dd e2 B2 G2 | B4 A4 | %30
w: ||||||ev- en there shall Thy|hand lead|
 B4 z2 B2 | B4 G4 | A4 Bc d2 | d6 z2 | d2 d2 (G>F E2) | G4 B4 | B8 ||[M:3/2] z8 B4 | G6 F2 E4 | %39
w: me, *|||||||||
 F4 F4 B4 | B6 G2 A4 | B8 z2 B2 | e6 e2 d4 | A4 F4 B4 | c6 B2 (A3 G) | F8 z4 | A8 B4 | F8 A4 | %48
w: |||||||||
 A4 B4 G4 | F8 A4 | A8 A4 | F4 B8 | B4 e4 e4 | ^d8 e4- | e4 z4 F4 | F4 A6 GA | B4 B4 A4 | G12 | %58
w: ||||||||||
 z4 d4 d4 | B6 A2 G4 | E4 B8 | B12 |] %62
w: ||||
V:4
 E,4 | E,8 E,2 B,,2 | E,4 F,4 (G,2 F,2) | (E,4 F,4) G,4 | D,4 B,,4 D,4 | E,2 E,2 D,4 D,4 | %6
 G,,4 (E,2 F,2) G,4 | B,,8 B,,4 | G,,2 G,,2 G,,4 E,4 | D,4 B,,8 | D,4 G,2 G,2 G,4 | G,,4 B,,8 | %12
 [E,,E,]8 z4 ||[M:2/2] E,>F,G,F, E,2 B,,2 | G,,2 G,,2 D,2 D,2 | D,2 D,>E, F,G, F,D, | %16
 D,D, D,2 D,2 z2 | z8 | z8 | B,/A,/ G,/F,/ E,2 B,,2 E,D, | (G,,2 D,2) B,,E, G,2 | A,,4 [E,,E,]4 | %22
 E,E,E,F, A,,4 | G,G, D,2 D,4 | D,2 F,2 G,2 G,G, | A,/G,/ F,/E,/ F,2 D,4 | G,2 D,2 G,,4 | z8 | %28
 B,,B,, E,2 G,>F, E,2 | E,4 F,4 | B,,4 z2 B,,2 | G,4 E,4 | A,,4 G,A, G,F, | G,6 z2 | %34
 G,2 D,2 E,>F,G,>A, | B,4 B,,4 | [E,,E,]8 ||[M:3/2] z8 E,4 | E,6 F,2 G,4 | D,4 B,,4 G,4 | %40
 E,6 E,2 D,4 | G,,8 z2 E,2 | G,6 G,2 G,4 | D,4 D,4 E,4 | A,,6 G,,2 A,,4 | B,,8 z4 | A,,8 G,,4 | %47
 D,8 A,,4 | A,,4 G,4 E,4 | B,,8 A,,4 | A,,8 A,,4 | A,,4 B,,8 | E,4 E,4 A,,4 | B,,8 ([E,,-E,]4 | %54
 [E,,E,]4) z4 D,4 | D,4 D,6 E,2 | G,4 G,4 D,4 | [G,,G,]12 | z4 D,4 B,,4 | G,6 D,2 E,4 | A,,4 B,,8 | %61
 [E,,E,]12 |] %62

